X:1
T:Seeking to Save
T:Philip Paul Bliss, 1876
T:Seeking to Save
T:Public Domain
T:Public Domain
C:Philip Paul Bliss, 1876
Z:Public Domain
%%score ( 1 2 ) ( 3 4 )
L:1/8
M:6/8
K:Ab
V:1 treble 
V:2 treble 
V:3 bass 
V:4 bass 
V:1
 [Ec]2 [=D=B] [Ec]2 [_DG] | [CA]3 [CE]3 | [DG]2 [C^F] [DG]2 [CA] | [EB]6 | %4
w: 1.~Ten- der- ly the|Shep- herd,|O’er the mount- ains|cold,|
w: 2.~Pa- tient- ly the|own- er,|Seeks with ear- nest|care,|
w: 3.~Lov- ing- ly the|Fa- ther|Sends the news a-|round,|
 [Ec]2 [=D=B] [Ec]2 [_DG] | [CA]3 [CE]3 | (E2 D) [CA]2 [DB] | [CA]6 ||"^Refrain" [Ae]3 [Ac]2 [Ac] | %9
w: Goes to bring the|lost one|Back * to the|||
w: In the dust and|dark- ness|Her * trea- sure|||
w: “He once dead now|liv- eth—|Once * lost is|||
 (e3 c3) | [Ac]3 [FA]2 [FA] | ([A-c]3 [FA]3) | [=DB]3 [DB]2 [Dc] | (B2 A) (G2 F) | E3 [B,E]2 [CE] | %15
w: ||||||
w: ||||||
w: ||||||
 [DE]6 | (E2 A) [CA]2 [DB] | [CA]6 | ([CE]2 [Ec]) [Ec]2 [Fd] | [Ec]6 | [_Ge]3 [Gc]2 [GA] | %21
w: ||||||
w: ||||||
w: ||||||
 [FA]3 F3 | (E2 D) [CA]2 [DB] | [CA]6 |] %24
w: |||
w: |||
w: |||
V:2
 x6 | x6 | x6 | x6 | x6 | x6 | G3 x3 | x6 || x6 | A6 | x6 | x6 | x6 | =D3 D3 | E3 x3 | x6 | C3 x3 | %17
w: ||||||fold.|||||||||||
w: ||||||rare.|||||||||||
w: ||||||found.”|||||||||||
 x6 | x6 | x6 | x6 | x3 F3 | G3 x3 | x6 |] %24
w: |||||||
w: |||||||
w: |||||||
V:3
 [A,,A,]2 [A,,A,] [A,,A,]2 [A,,A,] | [A,,A,]3 [A,,A,]3 | [E,B,]2 [E,=A,] [E,B,]2 [E,_A,] | %3
w: ~ ~ ~ ~|~ ~|~ ~ ~ ~|
 [E,G,]6 | [A,,A,]2 [A,,A,] [A,,A,]2 [A,,A,] | [A,,A,]3 [A,,A,]3 | [E,B,]3 [E,A,]2 [E,G,] | %7
w: ~|~ ~ ~ ~|~ ~|~ ~ ~|
 [A,,A,]6 || [A,C]3 A,2 A, | ([A,-C]3 A,3) | [F,C]3 [F,C]2 [F,C] | [F,C]6 | %12
w: ~|Seek- ing to|ing *|save, Lost one,|’tis|
 [B,,B,]3 [B,,B,]2 [B,,B,] | [B,,B,]3 (B,2 A,) | [E,G,]3 [E,G,]2 [E,A,] | [E,B,]6 | %16
w: Je- sus, Seek-|ing to *|Seek- ing to|save,|
 (A,2 E,) [A,,E,]2 [A,,E,] | [A,,E,]6 | A,3 A,2 A, | A,6 | [A,C]3 [A,E]2 [A,C] | [D,D]3 [D,D]3 | %22
w: seek- * ing to|Lost|one, ’tis Je-|to|||
 [E,B,]3 [E,A,]2 E, | [A,,E,]6 |] %24
w: ||
V:4
 x6 | x6 | x6 | x6 | x6 | x6 | x6 | x6 || x3 A,2 A, | x3 A,3 | x6 | x6 | x6 | x3 B,,3 | x6 | x6 | %16
w: ||||||||save, seek-|to||||save.|||
 A,,3 x3 | x6 | A,3 A,2 A, | A,6 | x6 | x6 | x5 E, | x6 |] %24
w: save,||sus, Seek- ing|save.|||||

